src/assets/svg/portals.svg

<svg width="42" height="42" viewBox="0 0 42 42" fill="none" xmlns="http://www.w3.org/2000/svg">
<path d="M21.0001 1.31257C17.1063 1.31266 13.3 2.46737 10.0624 4.6307C6.8249 6.79403 4.30157 9.8688 2.81153 13.4662C1.32148 17.0636 0.931647 21.0221 1.69131 24.8411C2.45098 28.66 4.32603 32.1679 7.07936 34.9213C10.7761 38.5911 15.7766 40.6463 20.9856 40.6368C26.1946 40.6273 31.1876 38.5537 34.8709 34.8704C38.5542 31.187 40.6276 26.194 40.637 20.985C40.6465 15.776 38.5912 10.7756 34.9213 7.07888C33.0974 5.245 30.9278 3.79109 28.5382 2.8013C26.1487 1.81152 23.5865 1.30551 21.0001 1.31257ZM38.1731 14.4376H30.5842C30.0747 12.6525 29.3593 10.9328 28.4525 9.31308C30.084 8.77896 31.6534 8.07101 33.1336 7.20143C33.427 7.46016 33.7135 7.72867 33.9932 8.00698C35.8244 9.83169 37.2489 12.0232 38.1731 14.4376ZM21.6563 3.2883C23.5146 4.77291 25.128 6.54035 26.4375 8.52591C24.8715 8.91273 23.2687 9.1311 21.6563 9.17732V3.2883ZM23.053 2.7391C26.3181 3.09632 29.4255 4.33116 32.0452 6.31246C30.6845 7.07279 29.2488 7.69054 27.7612 8.15587C26.4716 6.12489 24.8845 4.29897 23.053 2.7391ZM20.3438 3.2883V9.17732C18.7314 9.1311 17.1286 8.91273 15.5626 8.52591C16.8721 6.54035 18.4855 4.77291 20.3438 3.2883ZM14.239 8.15587C12.7513 7.69054 11.3156 7.07279 9.95489 6.31246C12.5746 4.33116 15.682 3.09632 18.9472 2.7391C17.1156 4.29897 15.5285 6.12489 14.239 8.15587ZM20.3438 10.4902V14.4376H12.7848C13.2868 12.7837 13.9764 11.1927 14.8403 9.69559C16.6377 10.1732 18.4847 10.4399 20.3438 10.4902ZM21.6563 10.4902C23.5155 10.4399 25.3624 10.1732 27.1599 9.69559C28.0237 11.1926 28.7134 12.7837 29.2153 14.4376H21.6563V10.4902ZM8.00697 8.00698C8.28588 7.72807 8.57241 7.45956 8.86658 7.20143C10.3468 8.07101 11.9161 8.77896 13.5476 9.31308C12.6408 10.9328 11.9254 12.6525 11.4159 14.4376H3.82707C4.7512 12.0232 6.17569 9.83169 8.00697 8.00698ZM3.82707 27.5626H11.4159C11.9254 29.3476 12.6408 31.0673 13.5476 32.6871C11.9161 33.2212 10.3468 33.9291 8.86658 34.7987C8.57318 34.54 8.28664 34.2715 8.00697 33.9932C6.17569 32.1685 4.7512 29.9769 3.82707 27.5626ZM20.3438 38.7118C18.4855 37.2272 16.8721 35.4598 15.5626 33.4742C17.1286 33.0874 18.7314 32.869 20.3438 32.8228V38.7118ZM18.9472 39.261C15.682 38.9038 12.5746 37.669 9.95489 35.6877C11.3156 34.9274 12.7513 34.3096 14.239 33.8443C15.5285 35.8753 17.1156 37.7012 18.9472 39.261ZM21.6563 38.7118V32.8228C23.2687 32.869 24.8715 33.0874 26.4375 33.4742C25.128 35.4598 23.5146 37.2272 21.6563 38.7118ZM27.7612 33.8443C29.2488 34.3096 30.6845 34.9274 32.0452 35.6877C29.4255 37.669 26.3181 38.9038 23.053 39.261C24.8845 37.7012 26.4716 35.8753 27.7612 33.8443ZM21.6563 31.5099V27.5626H29.2153C28.7134 29.2165 28.0237 30.8075 27.1599 32.3046C25.3624 31.8269 23.5155 31.5602 21.6563 31.5099ZM20.3438 31.5099C18.4847 31.5602 16.6377 31.8269 14.8403 32.3046C13.9764 30.8075 13.2868 29.2165 12.7848 27.5626H20.3438V31.5099ZM33.9932 33.9932C33.7143 34.2721 33.4277 34.5406 33.1336 34.7987C31.6534 33.9291 30.084 33.2212 28.4525 32.6871C29.3593 31.0673 30.0747 29.3476 30.5843 27.5626H38.1731C37.2489 29.9769 35.8244 32.1685 33.9932 33.9932ZM38.6171 26.2501H3.38303C2.37241 22.823 2.37241 19.1771 3.38303 15.7501H38.6171C39.6277 19.1771 39.6277 22.823 38.6171 26.2501Z" fill="black"/>
<path d="M16.5985 17.2548L13.3172 20.536C13.2563 20.5969 13.2079 20.6693 13.175 20.7489C13.142 20.8285 13.125 20.9139 13.125 21.0001C13.125 21.0862 13.142 21.1716 13.175 21.2512C13.2079 21.3308 13.2563 21.4032 13.3172 21.4641L16.5985 24.7453L17.5266 23.8172L14.7093 21.0001L17.5266 18.1829L16.5985 17.2548Z" fill="#E10303"/>
<path d="M28.683 20.536L25.4017 17.2548L24.4736 18.1829L27.2909 21.0001L24.4736 23.8172L25.4017 24.7453L28.683 21.4641C28.7439 21.4032 28.7923 21.3308 28.8253 21.2512C28.8582 21.1716 28.8752 21.0862 28.8752 21.0001C28.8752 20.9139 28.8582 20.8285 28.8253 20.7489C28.7923 20.6693 28.7439 20.5969 28.683 20.536Z" fill="#E10303"/>
<path d="M22.3818 16.7692L18.4443 24.6442L19.6183 25.2311L23.5558 17.3561L22.3818 16.7692Z" fill="#E10303"/>
</svg>

<svg width="42" height="42" fill="none" xmlns="http://www.w3.org/2000/svg">
  <path
    d="M21 1.313A19.688 19.688 0 007.08 34.92 19.688 19.688 0 0034.92 7.08a19.559 19.559 0 00-13.92-5.766zm17.173 13.125h-7.589a23.941 23.941 0 00-2.131-5.125 23.956 23.956 0 004.68-2.112 18.328 18.328 0 015.04 7.236zM21.656 3.288a22.7 22.7 0 014.782 5.238 22.643 22.643 0 01-4.782.651V3.288zm1.397-.549a18.186 18.186 0 018.992 3.573 22.637 22.637 0 01-4.284 1.844 24.046 24.046 0 00-4.708-5.417zm-2.71.55v5.888a22.643 22.643 0 01-4.78-.651 22.7 22.7 0 014.78-5.238zM14.24 8.155a22.636 22.636 0 01-4.284-1.844 18.186 18.186 0 018.992-3.573 24.04 24.04 0 00-4.708 5.417zm6.105 2.334v3.948h-7.56a22.65 22.65 0 012.056-4.742c1.798.477 3.645.744 5.504.794zm1.312 0c1.86-.05 3.706-.317 5.504-.794a22.647 22.647 0 012.055 4.742h-7.559V10.49zM8.007 8.007c.279-.279.565-.547.86-.806 1.48.87 3.05 1.578 4.68 2.112a23.941 23.941 0 00-2.131 5.125H3.827a18.326 18.326 0 014.18-6.431zm-4.18 19.556h7.589a23.945 23.945 0 002.132 5.124A23.954 23.954 0 008.867 34.8a18.326 18.326 0 01-5.04-7.236zm16.517 11.149a22.7 22.7 0 01-4.781-5.238 22.643 22.643 0 014.78-.651v5.889zm-1.397.549a18.186 18.186 0 01-8.992-3.573 22.636 22.636 0 014.284-1.844 24.039 24.039 0 004.708 5.417zm2.71-.55v-5.888c1.612.046 3.215.264 4.78.651a22.7 22.7 0 01-4.78 5.238zm6.104-4.867a22.637 22.637 0 014.284 1.844 18.186 18.186 0 01-8.992 3.573 24.044 24.044 0 004.708-5.417zm-6.105-2.334v-3.947h7.56a22.649 22.649 0 01-2.056 4.742 23.95 23.95 0 00-5.504-.795zm-1.312 0c-1.86.05-3.706.317-5.504.795a22.65 22.65 0 01-2.055-4.742h7.559v3.947zm13.65 2.483c-.28.28-.566.548-.86.806a23.954 23.954 0 00-4.681-2.112 23.95 23.95 0 002.131-5.124h7.59a18.328 18.328 0 01-4.18 6.43zm4.623-7.743H3.383a18.56 18.56 0 010-10.5h35.234a18.561 18.561 0 010 10.5z"
    fill="#000" />
  <path
    d="M16.599 17.255l-3.282 3.281a.655.655 0 000 .928l3.282 3.281.928-.928L14.709 21l2.818-2.817-.928-.928zM28.683 20.536l-3.281-3.281-.928.928L27.29 21l-2.817 2.817.928.928 3.281-3.28a.657.657 0 000-.929zM22.382 16.77l-3.938 7.874 1.174.587 3.938-7.875-1.174-.587z"
    fill="#E10303" /></svg>
